packages/katcn/src/icons/svg/brain-solid.svg

<svg width="24" height="25" viewBox="0 0 24 25" fill="none" xmlns="http://www.w3.org/2000/svg">
<path d="M4 6.66345C4 6.76246 4 6.96048 4 7.05949C2.2 8.1486 1 10.0298 1 12.208C1 14.3862 2.2 16.2674 4 17.3565C4 17.5545 4 17.6536 4 17.8516C4 18.8417 4.3 19.7328 4.9 20.4258C5.7 21.5149 7 22.208 8.5 22.208C8.9 22.208 9.2 22.208 9.6 22.109C10.4 21.911 11 21.1189 11 20.2278V17.8516V6.66345V4.18821C11 3.29712 10.4 2.50504 9.6 2.30702C9.2 2.20801 8.8 2.20801 8.4 2.20801C6 2.20801 4 4.18821 4 6.66345Z" fill="black"/>
<path d="M23 12.408C23 10.208 21.8 8.30801 20 7.20801C20 7.10801 20 6.90801 20 6.70801C20 4.20801 18 2.20801 15.5 2.20801C15.1 2.20801 14.8 2.20801 14.4 2.30801C13.5 2.50801 13 3.30801 13 4.20801V6.60801V17.808V20.208C13 21.108 13.6 21.908 14.4 22.108C14.7 22.208 15.1 22.208 15.5 22.208C18 22.208 20 20.208 20 17.708C20 17.608 20 17.408 20 17.308C21.9 16.508 23 14.608 23 12.408Z" fill="black"/>
</svg>

<svg xmlns="http://www.w3.org/2000/svg" fill="none" viewBox="0 0 24 25"><path fill="#000" d="M4 6.663v.396c-1.8 1.09-3 2.97-3 5.149s1.2 4.06 3 5.149v.495c0 .99.3 1.88.9 2.574.8 1.089 2.1 1.782 3.6 1.782.4 0 .7 0 1.1-.099.8-.198 1.4-.99 1.4-1.881V4.188c0-.89-.6-1.683-1.4-1.881-.4-.099-.8-.099-1.2-.099C6 2.208 4 4.188 4 6.663m19 5.745c0-2.2-1.2-4.1-3-5.2v-.5c0-2.5-2-4.5-4.5-4.5-.4 0-.7 0-1.1.1-.9.2-1.4 1-1.4 1.9v16c0 .9.6 1.7 1.4 1.9.3.1.7.1 1.1.1 2.5 0 4.5-2 4.5-4.5v-.4c1.9-.8 3-2.7 3-4.9"/></svg>
